!!!COM: Palestrina, Giovanni Perluigi da
!!!OPR: Viri Galilaei
!!!OTL: Benedictus
**kern	**kern	**kern	**kern
*Itenor	*Itenor	*Icalto	*Icalto
!Tenor 2	!Tenor 1	!Altus 2	!Altus 1
*clefGv2	*clefGv2	*clefG2	*clefG2
*k[b-]	*k[b-]	*k[b-]	*k[b-]
*G:dor	*G:dor	*G:dor	*G:dor
*M4/2	*M4/2	*M4/2	*M4/2
=1	=1	=1	=1
0r	2r	0r	1g
.	2G	.	.
.	4G	.	1b-
.	4A	.	.
.	4B-	.	.
.	4c	.	.
=2	=2	=2	=2
0r	2d	0r	1b-
.	2e	.	.
.	2f#	.	2a
.	[2g	.	2g
=3	=3	=3	=3
1r	2g]	1r	1a
.	2f	.	.
2r	2e-	1g	1b-
2G	4d	.	.
.	4c	.	.
=4	=4	=4	=4
4G	1d	1b-	1g
4A	.	.	.
4B-	.	.	.
4c	.	.	.
2d	1G	1b-	1r
2e	.	.	.
=5	=5	=5	=5
2f#	2r	2a	0r
1g	1c	2g	.
.	.	1a	.
2f#	2d	.	.
=6	=6	=6	=6
2g	1e-	1g	1r
2G	.	.	.
1B-	2d	1r	2r
.	4G	.	2d
.	4A	.	.
=7	=7	=7	=7
1B-	4B-	0r	4d
.	4c	.	4e
.	4d	.	4f
.	4e	.	4g
2A	2f	.	2a
2G	[2g	.	2b-
=8	=8	=8	=8
1A	2g]	1r	1.cc
.	2f#	.	.
4G	1g	2r	.
4A	.	.	.
4B-	.	2d	2b-
4c	.	.	.
=9	=9	=9	=9
1.d	2r	4d	1a
.	.	4e	.
.	2d	4f	.
.	.	4g	.
.	1f	2a	4d
.	.	.	4e
2B-	.	2b-	4f
.	.	.	4g
=10	=10	=10	=10
1F	1f	2cc	4a
.	.	.	4b-
.	.	2f	1cc
1r	2e	2g	.
.	2d	[2a	2f
=11	=11	=11	=11
0r	1e-	4a]	1g
.	.	4g	.
.	.	1g	.
.	[1d	.	1a
.	.	2f#	.
=12	=12	=12	=12
1G	0d]	2g	1g
.	.	2G	.
1B-	.	4G	2r
.	.	4A	.
.	.	4B-	2d
.	.	4c	.
=13	=13	=13	=13
1B-	1r	4d	4d
.	.	4c	4e
.	.	4d	4f
.	.	4e	4g
2A	2r	2f	2a
2G	2d	[2g	2b-
=14	=14	=14	=14
1A	1c	2g]	1.cc
.	.	2f	.
[1G	2e-	2.g	.
.	4d	.	4b-
.	4c	4f	4a
=15	=15	=15	=15
1G]	2d	4g	4b-
.	.	4a	4a
.	1G	1b-	4g
.	.	.	4f
1r	.	.	2g
.	2A	2a	2f
=16	=16	=16	=16
0r	2c	2g	2e
.	2d	2f	1d
.	1A	2e	.
.	.	2a	2c#
=17	=17	=17	=17
2r	1d	4a	1d
.	.	4g	.
2d	.	4f	.
.	.	4e	.
4d	1r	2d	1r
4c	.	.	.
4B-	.	2f	.
4A	.	.	.
=18	=18	=18	=18
2G	0r	2e	1r
2B-	.	4d	.
.	.	4e	.
2.A	.	4f	2r
.	.	4e	.
.	.	4c	2a
4B-	.	4d	.
=19	=19	=19	=19
2c	0r	2e	4a
.	.	.	4g
2.d	.	4d	4f
.	.	4e	4e
.	.	4f	2d
4c	.	4g	.
4A	.	2a	2f
4B-	.	.	.
=20	=20	=20	=20
2c	0r	2g	2e
2F	.	2.cc	2.a
1G	.	.	.
.	.	4b-	4g
.	.	4b-	[2g
.	.	8a	.
.	.	8g	.
=21	=21	=21	=21
1d	2r	1a	2g]
.	2d	.	4f
.	.	.	4e
1r	4d	2a	4f
.	4c	.	4e
.	4B-	[2g	4d
.	4A	.	4c
=22	=22	=22	=22
0r	2G	4g]	4B-
.	.	4f	4c
.	2B-	4f	1d
.	.	8e	.
.	.	8d	.
.	1A	1e	.
.	.	.	2c#
=23	=23	=23	=23
2r	2B-	1d	1d
2d	2B-	.	.
4d	1G	1r	2r
4c	.	.	.
4B-	.	.	2g
4A	.	.	.
=24	=24	=24	=24
2G	0r	0r	4g
.	.	.	4f
2g	.	.	4e
.	.	.	4d
4g	.	.	2c
4f	.	.	.
4e	.	.	2cc
4d	.	.	.
=25	=25	=25	=25
2c	2r	0r	4cc
.	.	.	4b-
2.f	2d	.	4a
.	.	.	4g
.	4d	.	1f
4e	4c	.	.
4d	4B-	.	.
4c	4A	.	.
=26	=26	=26	=26
4B-	2G	0r	2.b-
4A	.	.	.
2G	2g	.	.
.	.	.	4a
2.c	4g	.	4g
.	4f	.	8a
.	.	.	8b-
.	4e	.	[2cc
4d	4d	.	.
=27	=27	=27	=27
4e	4c	0r	4cc]
4f	4d	.	4b-
1g	2e	.	4a
.	.	.	4g
.	2d	.	2a
2f#	2d	.	2a
=28	=28	=28	=28
2g	1G	2r	1g
2d	.	2g	.
[1e	2r	4g	1r
.	.	4f	.
.	2c	4e	.
.	.	4d	.
=29	=29	=29	=29
2e]	4c	2c	2r
.	4B-	.	.
2e	4A	2cc	2a
.	4G	.	.
1f	2F	4cc	4a
.	.	4b-	4g
.	2F	4a	4f
.	.	4g	4e
=30	=30	=30	=30
0r	4B-	2f	2d
.	4A	.	.
.	4G	2.b-	2g
.	4F	.	.
.	2G	.	4g
.	.	4a	4f
.	[2c	4g	4e
.	.	4f	4d
=31	=31	=31	=31
2r	4c]	2e	2c
.	4B-	.	.
2a	4A	2e	2.cc
.	4G	.	.
4a	1F	2f	.
4g	.	.	4b-
4f	.	[2cc	2a
4e	.	.	.
=32	=32	=32	=32
2d	1G	2cc]	2g
2g	.	4b-	2d
.	.	4a	.
4g	1G	1b-	2.g
4f	.	.	.
4e	.	.	.
4d	.	.	4f
=33	=33	=33	=33
2c#	0A	1.a	2e
1d	.	.	2d
.	.	.	2e
2c#	.	2a	2e
=34	=34	=34	=34
[0d	2.B-	2f	2d
.	.	1b-	4G
.	4A	.	4A
.	2G	.	4B-
.	.	.	4c
.	4F	4a	4d
.	4E	4g	4e
=35	=35	=35	=35
1d_	1D	2a	2f
.	.	1g	2g
1d_	1D	.	2.a
.	.	2f#	.
.	.	.	4a
=36	=36	=36	=36
0d]	0G	0g	0b
==	==	==	==
*-	*-	*-	*-
!!!CDT: 1525/^1526/-1594/2/2
!!!OCY: Italia
!!!AGN: Mass (Parody)
!!!AST: renaissance, vocal
!!!ASW: Motet 1569 (Palestrina)
!!!PWK: Masses, Book 12
!!!RNB: Cadence finals: D
!!!YOR: Le Opere Complete, v. 29, p. 159
!!!YOO: Rome, Italy: Fratelli Scalera
!!!END: 1992//
!!!EED: John Miller
!!!YEC: Copyright 2000, John Miller
!!!YEN: United States of America
!!!YEM: Rights to all derivative electronic formats reserved.
!!!YEM: Refer to licensing agreement for further details.
!!!YEM: This file must be accompanied by the licensing agreement.
!!!YEM: A copy of the licensing agreement may be found at http://www.music-cog.ohio-state.edu/HumdrumDatabases/Palestrina/license.txt
!!!EMD: converted to Humdrum by Bret Aarden
